dist/img/icon-linkedin.svg

<?xml version="1.0" encoding="UTF-8" standalone="no"?>
<svg width="23px" height="21px" viewBox="0 0 23 21" version="1.1" xmlns="http://www.w3.org/2000/svg" xmlns:xlink="http://www.w3.org/1999/xlink" xmlns:sketch="http://www.bohemiancoding.com/sketch/ns">
    <!-- Generator: Sketch 3.2.2 (9983) - http://www.bohemiancoding.com/sketch -->
    <title>icon-linkedin</title>
    <desc>Created with Sketch.</desc>
    <defs></defs>
    <g id="Page-1" stroke="none" stroke-width="1" fill="none" fill-rule="evenodd" sketch:type="MSPage">
        <g id="Desktop" sketch:type="MSArtboardGroup" transform="translate(-659.000000, -383.000000)" fill="#000000">
            <g id="icon-linkedin" sketch:type="MSLayerGroup" transform="translate(659.000000, 383.000000)">
                <path d="M1.55042105,4.47189474 C1.99694737,4.91842105 2.61810526,5.14168421 3.36194737,5.14168421 L3.38736842,5.14168421 C4.18094737,5.14168421 4.801,4.91842105 5.27184211,4.47189474 C5.74378947,3.99994737 5.96705263,3.45394737 5.96705263,2.75984211 C5.96705263,2.09005263 5.71836842,1.51973684 5.27184211,1.07321053 C4.82531579,0.626684211 4.20526316,0.403421053 3.436,0.403421053 C2.66673684,0.403421053 2.04668421,0.626684211 1.57584211,1.07321053 C1.10389474,1.51973684 0.856315789,2.09005263 0.856315789,2.75984211 C0.856315789,3.45394737 1.07957895,3.99994737 1.55042105,4.47189474 L1.55042105,4.47189474 Z M1.12931579,20.7214737 L5.69405263,20.7214737 L5.69405263,7.02726316 L1.12931579,7.02726316 L1.12931579,20.7214737 Z M12.7644211,20.7214737 L12.7644211,13.0796842 C12.7644211,12.6088421 12.8141579,12.2363684 12.9136316,11.9633684 C13.1114737,11.4925263 13.4098947,11.0957368 13.8066842,10.773 C14.1780526,10.4502632 14.6743158,10.3010526 15.2700526,10.3010526 C16.0636316,10.3010526 16.6339474,10.5740526 17.0064211,11.1200526 C17.3788947,11.6660526 17.5767368,12.4353158 17.5767368,13.4024211 L17.5767368,20.7214737 L22.1414737,20.7214737 L22.1414737,12.8818421 C22.1414737,10.8470526 21.6706316,9.30963158 20.7035263,8.26736842 C19.7353158,7.22510526 18.4697895,6.70452632 16.8826316,6.70452632 C16.3123158,6.70452632 15.7663158,6.77857895 15.2943684,6.92778947 C14.8235263,7.05157895 14.4267368,7.25052632 14.0796842,7.52242105 C13.7569474,7.77110526 13.5082632,8.01868421 13.3104211,8.24305263 C13.1114737,8.46521053 12.9136316,8.71389474 12.739,9.01121053 L12.7644211,9.01121053 L12.7644211,7.02726316 L8.19968421,7.02726316 L8.224,7.69705263 L8.224,11.7898421 C8.224,14.0722105 8.224,17.0497895 8.19968421,20.7214737 L12.7644211,20.7214737 L12.7644211,20.7214737 Z" id="Fill-54" sketch:type="MSShapeGroup"></path>
            </g>
        </g>
    </g>
</svg>

<svg width="23" height="21" viewBox="0 0 23 21" xmlns="http://www.w3.org/2000/svg"><title>icon-linkedin</title><path d="M1.55 4.472c.447.446 1.068.67 1.812.67h.025c.794 0 1.414-.224 1.885-.67.472-.472.695-1.018.695-1.712 0-.67-.25-1.24-.695-1.687-.447-.446-1.067-.67-1.836-.67-.77 0-1.39.224-1.86.67-.472.447-.72 1.017-.72 1.687 0 .694.224 1.24.694 1.712zm-.42 16.25h4.564V7.026H1.13V20.72zm11.634 0V13.08c0-.47.05-.844.15-1.117.197-.47.496-.867.893-1.19.37-.323.867-.472 1.463-.472.794 0 1.364.274 1.736.82.373.546.57 1.315.57 2.282v7.32h4.565v-7.84c0-2.035-.47-3.572-1.436-4.615-.97-1.042-2.234-1.562-3.82-1.562-.572 0-1.118.074-1.59.223-.47.124-.867.323-1.214.594-.323.25-.572.497-.77.72-.2.223-.396.472-.57.77h.024V7.026H8.2l.024.67v4.093c0 2.282 0 5.26-.024 8.93h4.564z" fill="#000" fill-rule="evenodd"/></svg>
